src/images/logo-insta.svg

<svg fill="none" height="26" viewBox="0 0 26 26" width="26" xmlns="http://www.w3.org/2000/svg"><g fill="#fff"><path d="m.442456 7.47205c.214995-1.13308.418369-2.26616 1.034304-3.27722 1.40618-2.29521 3.60842-3.17843 6.14187-3.23654 3.45737-.08716 6.92047-.081349 10.38367 0 2.3475.05811 4.4394.83093 5.8688 2.86466.9181 1.31321 1.2609 2.81237 1.2899 4.36381.0523 3.32374.0756 6.65324-.0058 9.97694-.0639 2.6787-.9936 4.9623-3.498 6.322-1.1563.6275-2.4288.9006-3.7246.9181-3.4167.0407-6.8334.0755-10.25005-.0058-2.5625-.0581-4.78799-.9239-6.2116-3.2424-.615936-1.0052-.81931-2.1441-1.034304-3.2772.00581-3.8002.00581-7.6062.00581-11.40635zm12.394144-4.17206c-1.6967 0-3.39342-.03486-5.09013.00581-2.64967.06392-4.27665 1.30159-4.75894 3.58519-.10459.48228-.18013.982-.18013 1.4759-.01743 3.21331-.05811 6.42661.00581 9.63411.06392 3.1959 1.67928 4.9042 4.76475 5.0204 3.48064.1278 6.96704.1162 10.44754 0 2.5684-.0872 4.0966-1.319 4.5847-3.5387.0871-.3951.1685-.8019.1743-1.2086.0174-3.6607.2208-7.3273-.1104-10.98218-.1976-2.16738-1.6444-3.57937-3.806-3.87572-2.0047-.26729-4.021-.07553-6.0315-.11621z"/><path d="m19.2168 13.2188c-.0116 3.4516-2.8763 6.2872-6.3918 6.3278-3.52703.0407-6.45561-2.8704-6.44398-6.4091.01162-3.48061 2.98087-6.39757 6.45568-6.32784 3.5735.06392 6.3917 2.89952 6.3801 6.40914zm-2.3766-.0348c.0058-2.1965-1.8071-3.99778-4.0268-4.0094-2.208-.01162-4.0442 1.7955-4.05001 3.9861-.00581 2.1965 1.80711 3.9978 4.02681 4.0094 2.208.0116 4.0442-1.7955 4.05-3.9861z"/><path d="m19.3911 5.13035c.8483-.01163 1.5688.69146 1.5688 1.53401-.0058.80187-.6972 1.49334-1.5166 1.51659-.8483.02324-1.5863-.66823-1.5979-1.50497-.0174-.84835.6741-1.53401 1.5457-1.54563z"/></g></svg>

<svg width="26" height="26" viewBox="0 0 26 26" fill="none" xmlns="http://www.w3.org/2000/svg">
<path d="M0.442456 7.47205C0.657451 6.33897 0.860825 5.20589 1.47676 4.19483C2.88294 1.89962 5.08518 1.0164 7.61863 0.95829C11.076 0.87113 14.5391 0.876941 18.0023 0.95829C20.3498 1.0164 22.4417 1.78922 23.8711 3.82295C24.7892 5.13616 25.132 6.63532 25.161 8.18676C25.2133 11.5105 25.2366 14.84 25.1552 18.1637C25.0913 20.8424 24.1616 23.126 21.6572 24.4857C20.5009 25.1132 19.2284 25.3863 17.9326 25.4038C14.5159 25.4445 11.0992 25.4793 7.68255 25.398C5.12005 25.3399 2.89456 24.4741 1.47095 22.1556C0.855014 21.1504 0.65164 20.0115 0.436646 18.8784C0.442456 15.0782 0.442456 11.2722 0.442456 7.47205ZM12.8366 3.29999C11.1399 3.29999 9.44318 3.26513 7.74647 3.3058C5.0968 3.36972 3.46982 4.60739 2.98753 6.89099C2.88294 7.37327 2.8074 7.87299 2.8074 8.36689C2.78997 11.5802 2.74929 14.7935 2.81321 18.001C2.87713 21.1969 4.49249 22.9052 7.57796 23.0214C11.0586 23.1492 14.545 23.1376 18.0255 23.0214C20.5939 22.9342 22.1221 21.7024 22.6102 19.4827C22.6973 19.0876 22.7787 18.6808 22.7845 18.2741C22.8019 14.6134 23.0053 10.9468 22.6741 7.29192C22.4765 5.12454 21.0297 3.71255 18.8681 3.4162C16.8634 3.14891 14.8471 3.34067 12.8366 3.29999Z" fill="white"/>
<path d="M19.2168 13.2188C19.2052 16.6704 16.3405 19.506 12.825 19.5466C9.29797 19.5873 6.36939 16.6762 6.38102 13.1375C6.39264 9.65689 9.36189 6.73993 12.8367 6.80966C16.4102 6.87358 19.2284 9.70918 19.2168 13.2188ZM16.8402 13.184C16.846 10.9875 15.0331 9.18622 12.8134 9.1746C10.6054 9.16298 8.7692 10.9701 8.76339 13.1607C8.75758 15.3572 10.5705 17.1585 12.7902 17.1701C14.9982 17.1817 16.8344 15.3746 16.8402 13.184Z" fill="white"/>
<path d="M19.3911 5.13035C20.2394 5.11872 20.9599 5.82181 20.9599 6.66436C20.9541 7.46623 20.2627 8.1577 19.4433 8.18095C18.595 8.20419 17.857 7.51272 17.8454 6.67598C17.828 5.82763 18.5195 5.14197 19.3911 5.13035Z" fill="white"/>
</svg>
